public/images/edit-2.svg

<svg width="16" height="16" viewBox="0 0 16 16" fill="none" xmlns="http://www.w3.org/2000/svg">
<g id="edit-2">
<g id="vuesax/bold/edit-2">
<g id="edit-2_2">
<path id="Vector" d="M14 14.6667H2C1.72667 14.6667 1.5 14.4401 1.5 14.1667C1.5 13.8934 1.72667 13.6667 2 13.6667H14C14.2733 13.6667 14.5 13.8934 14.5 14.1667C14.5 14.4401 14.2733 14.6667 14 14.6667Z" fill="#EAE0FF"/>
<path id="Vector_2" d="M12.6765 2.31994C11.3831 1.02661 10.1165 0.993275 8.7898 2.31994L7.98314 3.12661C7.91647 3.19328 7.8898 3.29994 7.91647 3.39328C8.42314 5.15994 9.83647 6.57328 11.6031 7.07994C11.6298 7.08661 11.6565 7.09328 11.6831 7.09328C11.7565 7.09328 11.8231 7.06661 11.8765 7.01328L12.6765 6.20661C13.3365 5.55328 13.6565 4.91994 13.6565 4.27994C13.6631 3.61994 13.3431 2.97994 12.6765 2.31994Z" fill="#EAE0FF"/>
<path id="Vector_3" d="M10.4056 7.68678C10.2122 7.59345 10.0256 7.50011 9.84558 7.39345C9.69891 7.30678 9.55891 7.21345 9.41891 7.11345C9.30558 7.04011 9.17224 6.93345 9.04558 6.82678C9.03224 6.82011 8.98558 6.78011 8.93224 6.72678C8.71224 6.54011 8.46558 6.30011 8.24558 6.03345C8.22558 6.02011 8.19224 5.97345 8.14558 5.91345C8.07891 5.83345 7.96558 5.70011 7.86558 5.54678C7.78558 5.44678 7.69224 5.30011 7.60558 5.15345C7.49891 4.97345 7.40558 4.79345 7.31224 4.60678C7.18987 4.34455 6.8457 4.26666 6.64108 4.47127L2.89224 8.22011C2.80558 8.30678 2.72558 8.47345 2.70558 8.58678L2.34558 11.1401C2.27891 11.5934 2.40558 12.0201 2.68558 12.3068C2.92558 12.5401 3.25891 12.6668 3.61891 12.6668C3.69891 12.6668 3.77891 12.6601 3.85891 12.6468L6.41891 12.2868C6.53891 12.2668 6.70558 12.1868 6.78558 12.1001L10.5406 8.34509C10.7411 8.14456 10.6658 7.79954 10.4056 7.68678Z" fill="#EAE0FF"/>
</g>
</g>
</g>
</svg>

<svg width="16" height="16" fill="none" xmlns="http://www.w3.org/2000/svg"><g fill="#EAE0FF"><path d="M14 14.667H2a.504.504 0 0 1-.5-.5c0-.274.227-.5.5-.5h12c.273 0 .5.226.5.5 0 .273-.227.5-.5.5ZM12.677 2.32c-1.294-1.293-2.56-1.327-3.887 0l-.807.807a.278.278 0 0 0-.067.266 5.42 5.42 0 0 0 3.687 3.687.267.267 0 0 0 .273-.067l.8-.806c.66-.654.98-1.287.98-1.927.007-.66-.313-1.3-.98-1.96ZM10.406 7.687a5.867 5.867 0 0 1-.987-.573 4.026 4.026 0 0 1-.373-.287.814.814 0 0 1-.114-.1 5.639 5.639 0 0 1-.686-.694c-.02-.013-.054-.06-.1-.12-.067-.08-.18-.213-.28-.366a3.66 3.66 0 0 1-.26-.394c-.107-.18-.2-.36-.294-.546-.122-.262-.466-.34-.67-.136l-3.75 3.75a.803.803 0 0 0-.186.366l-.36 2.553c-.067.453.06.88.34 1.167.24.233.573.36.933.36.08 0 .16-.007.24-.02l2.56-.36c.12-.02.287-.1.367-.187l3.755-3.755c.2-.2.125-.545-.135-.658Z"/></g></svg>
